X:1
T:Partition sans titre
C:Compositeur / Arrangeur
L:1/8
M:6/8
I:linebreak $
K:D
V:1 treble nm="Violon" snm="Vln."
V:1
"D" FEF DED | D2 d"A" cAG |"D" FEF FED | A2 F"G" GFE |"D" FEF DED | D2 d"A" cAG |"D" FAF"G" GBG | %7
"D" A2 F"G" GFE ::"D" D2 d"A" cAd | cAd cAG |"D" FEF"A" cAd |"D" A2 F"G" GFE |"D" D2 d"A" cAd | %13
"D" fed"A" cAG |"D" FAF"G" GBG |"D" A2 F"G" GFE :| %16
